src/16/actions/tab-new-background.svg

<svg xmlns="http://www.w3.org/2000/svg" viewBox="0 0 16 16">
  <defs id="defs3051">
    <style type="text/css" id="current-color-scheme">
      .ColorScheme-Text {
        color:#5d656b;
      }
      </style>
  </defs>
 <path style="fill:currentColor;fill-opacity:1;stroke:none" 
     d="M 2 2 L 2 14 L 8 14 L 8 13 L 3 13 L 3 3 L 6 3 L 6 5 L 11 5 L 13 5 L 13 8 L 14 8 L 14 4 L 11 4 L 11 2 L 10 2 L 6 2 L 2 2 z M 11.501953 9.0019531 L 11.023438 10.345703 L 9.734375 9.7324219 L 10.347656 11.021484 L 9.0019531 11.5 L 10.347656 11.978516 L 9.734375 13.267578 L 11.023438 12.654297 L 11.501953 13.998047 L 11.978516 12.654297 L 13.267578 13.267578 L 12.654297 11.978516 L 14 11.5 L 12.654297 11.021484 L 13.267578 9.7324219 L 11.978516 10.345703 L 11.501953 9.0019531 z "
     class="ColorScheme-Text"
     />
</svg>

<svg xmlns="http://www.w3.org/2000/svg" viewBox="0 0 16 16"><path d="M2 2v12h6v-1H3V3h3v2h7v3h1V4h-3V2H2zm9.502 7.002l-.479 1.344-1.289-.614.614 1.29-1.346.478 1.346.479-.614 1.289 1.29-.614.478 1.344.477-1.344 1.289.614-.614-1.29L14 11.5l-1.346-.479.614-1.289-1.29.614-.476-1.344z" fill="currentColor" color="#5d656b"/></svg>
